X:862
T:Reel 862
M:4/4
K:Gmaj
L:1/8
dc|BABc dcBc|dggf g2g2|BABc defd|cAFA c2dc|BABc dedd|BABc dggf|edcB AcBA|G2AG G2|ga|bagf gfdB|Bcde f2df|gagf dedB|cABc A2g2|bagf gedB|BABc defg| (3fga fa gfdB|cAFA c2|
